flags/km.svg

<?xml version="1.0" encoding="UTF-8" standalone="no"?>
<!DOCTYPE svg PUBLIC "-//W3C//DTD SVG 1.0//EN"
"http://www.w3.org/TR/2001/REC-SVG-20010904/DTD/svg10.dtd">
<!-- Created with Inkscape (http://www.inkscape.org/) -->
<svg
   xmlns="http://www.w3.org/2000/svg"
   xmlns:xlink="http://www.w3.org/1999/xlink"
   version="1.0"
   x="0.0000000"
   y="0.0000000"
   width="500.00000"
   height="300.00000"
   id="svg1">
  <defs
     id="defs3" />
  <g
     id="layer1">
    <rect
       width="500.00000"
       height="300.00000"
       x="125.00000"
       y="377.36218"
       transform="translate(-125.0000,-377.3622)"
       style="fill:#ffc61e;fill-opacity:1.0000000;stroke:none;stroke-width:1.2500000;stroke-linecap:butt;stroke-linejoin:miter;stroke-miterlimit:4.0000000;stroke-opacity:1.0000000"
       id="rect1061" />
    <rect
       width="500.00000"
       height="225.00000"
       x="125.00000"
       y="452.36218"
       transform="translate(-125.0000,-377.3622)"
       style="fill:#ffffff;fill-opacity:1.0000000;stroke:none;stroke-width:1.2500000;stroke-linecap:butt;stroke-linejoin:miter;stroke-miterlimit:4.0000000;stroke-opacity:1.0000000"
       id="rect2304" />
    <rect
       width="500.00000"
       height="150.00000"
       x="125.00000"
       y="527.36218"
       transform="translate(-125.0000,-377.3622)"
       style="fill:#ce1126;fill-opacity:1.0000000;stroke:none;stroke-width:1.2500000;stroke-linecap:butt;stroke-linejoin:miter;stroke-miterlimit:4.0000000;stroke-opacity:1.0000000"
       id="rect2926" />
    <rect
       width="500.00000"
       height="75.000000"
       x="125.00000"
       y="602.36218"
       transform="translate(-125.0000,-377.3622)"
       style="fill:#3a75c4;fill-opacity:1.0000000;stroke:none;stroke-width:1.2500000;stroke-linecap:butt;stroke-linejoin:miter;stroke-miterlimit:4.0000000;stroke-opacity:1.0000000"
       id="rect3548" />
    <path
       d="M 125.00000,677.36218 L 375.00000,527.36218 L 125.00000,377.36218 L 125.00000,677.36218 z "
       transform="translate(-125.0000,-377.3622)"
       style="fill:#3d8e33;fill-opacity:1.0000000;fill-rule:evenodd;stroke:none;stroke-width:0.25000000pt;stroke-linecap:butt;stroke-linejoin:miter;stroke-opacity:1.0000000"
       id="path4170" />
    <path
       d="M 302.78550 421.47113 A 89.675148 89.675148 0 1 1  123.43520,421.47113 A 89.675148 89.675148 0 1 1  302.78550 421.47113 z"
       transform="matrix(0.752717,0.000000,0.000000,0.752717,-75.41178,-167.2485)"
       style="fill:#ffffff;fill-opacity:1.0000000;stroke:none;stroke-width:1.2500000;stroke-linecap:butt;stroke-linejoin:miter;stroke-miterlimit:4.0000000;stroke-opacity:1.0000000"
       id="path5413" />
    <path
       d="M 302.78550 421.47113 A 89.675148 89.675148 0 1 1  123.43520,421.47113 A 89.675148 89.675148 0 1 1  302.78550 421.47113 z"
       transform="matrix(0.752717,0.000000,0.000000,0.752717,-45.41178,-167.2485)"
       style="fill:#3d8e33;fill-opacity:1.0000000;stroke:none;stroke-width:1.2500000;stroke-linecap:butt;stroke-linejoin:miter;stroke-miterlimit:4.0000000;stroke-opacity:1.0000000"
       id="path5414" />
    <path
       d="M 186.31282,571.25130 L 195.39491,571.25130 L 198.20037,562.61380 L 201.00583,571.25130 L 210.08793,571.25130 L 202.74142,576.58880 L 205.54689,585.22630 L 198.20037,579.88879 L 190.85387,585.22630 L 193.65933,576.58880 L 186.31282,571.25130 z "
       transform="translate(-98.20038,-376.8013)"
       style="fill:#ffffff;fill-opacity:1.0000000;fill-rule:evenodd;stroke:none;stroke-width:1.0000000pt;stroke-linecap:butt;stroke-linejoin:miter;stroke-opacity:1.0000000"
       id="path2203" />
    <path
       d="M 186.31282,571.25130 L 195.39491,571.25130 L 198.20037,562.61380 L 201.00583,571.25130 L 210.08793,571.25130 L 202.74142,576.58880 L 205.54689,585.22630 L 198.20037,579.88879 L 190.85387,585.22630 L 193.65933,576.58880 L 186.31282,571.25130 z "
       transform="translate(-98.20038,-473.4263)"
       style="fill:#ffffff;fill-opacity:1.0000000;fill-rule:evenodd;stroke:none;stroke-width:1.0000000pt;stroke-linecap:butt;stroke-linejoin:miter;stroke-opacity:1.0000000"
       id="path6092" />
    <path
       d="M 186.31282,571.25130 L 195.39491,571.25130 L 198.20037,562.61380 L 201.00583,571.25130 L 210.08793,571.25130 L 202.74142,576.58880 L 205.54689,585.22630 L 198.20037,579.88879 L 190.85387,585.22630 L 193.65933,576.58880 L 186.31282,571.25130 z "
       transform="translate(-98.20038,-441.2180)"
       style="fill:#ffffff;fill-opacity:1.0000000;fill-rule:evenodd;stroke:none;stroke-width:1.0000000pt;stroke-linecap:butt;stroke-linejoin:miter;stroke-opacity:1.0000000"
       id="path6095" />
    <path
       d="M 186.31282,571.25130 L 195.39491,571.25130 L 198.20037,562.61380 L 201.00583,571.25130 L 210.08793,571.25130 L 202.74142,576.58880 L 205.54689,585.22630 L 198.20037,579.88879 L 190.85387,585.22630 L 193.65933,576.58880 L 186.31282,571.25130 z "
       transform="translate(-98.20038,-409.0097)"
       style="fill:#ffffff;fill-opacity:1.0000000;fill-rule:evenodd;stroke:none;stroke-width:1.0000000pt;stroke-linecap:butt;stroke-linejoin:miter;stroke-opacity:1.0000000"
       id="path6098" />
  </g>
</svg>

<svg xmlns="http://www.w3.org/2000/svg" width="500" height="300" version="1.0"><path d="M125 377.362h500v300H125z" style="fill:#ffc61e;fill-opacity:1;stroke:none;stroke-width:1.25;stroke-linecap:butt;stroke-linejoin:miter;stroke-miterlimit:4;stroke-opacity:1" transform="translate(-125 -377.362)"/><path d="M125 452.362h500v225H125z" style="fill:#fff;fill-opacity:1;stroke:none;stroke-width:1.25;stroke-linecap:butt;stroke-linejoin:miter;stroke-miterlimit:4;stroke-opacity:1" transform="translate(-125 -377.362)"/><path d="M125 527.362h500v150H125z" style="fill:#ce1126;fill-opacity:1;stroke:none;stroke-width:1.25;stroke-linecap:butt;stroke-linejoin:miter;stroke-miterlimit:4;stroke-opacity:1" transform="translate(-125 -377.362)"/><path d="M125 602.362h500v75H125z" style="fill:#3a75c4;fill-opacity:1;stroke:none;stroke-width:1.25;stroke-linecap:butt;stroke-linejoin:miter;stroke-miterlimit:4;stroke-opacity:1" transform="translate(-125 -377.362)"/><path d="m125 677.362 250-150-250-150z" style="fill:#3d8e33;fill-opacity:1;fill-rule:evenodd;stroke:none;stroke-width:.25pt;stroke-linecap:butt;stroke-linejoin:miter;stroke-opacity:1" transform="translate(-125 -377.362)"/><path d="M302.786 421.471a89.675 89.675 0 1 1-179.35 0 89.675 89.675 0 1 1 179.35 0" style="fill:#fff;fill-opacity:1;stroke:none;stroke-width:1.25;stroke-linecap:butt;stroke-linejoin:miter;stroke-miterlimit:4;stroke-opacity:1" transform="matrix(.75272 0 0 .75272 -75.412 -167.249)"/><path d="M302.786 421.471a89.675 89.675 0 1 1-179.35 0 89.675 89.675 0 1 1 179.35 0" style="fill:#3d8e33;fill-opacity:1;stroke:none;stroke-width:1.25;stroke-linecap:butt;stroke-linejoin:miter;stroke-miterlimit:4;stroke-opacity:1" transform="matrix(.75272 0 0 .75272 -45.412 -167.249)"/><path d="M186.313 571.251h9.082l2.805-8.637 2.806 8.637h9.082l-7.347 5.338 2.806 8.637-7.347-5.337-7.346 5.337 2.805-8.637z" style="fill:#fff;fill-opacity:1;fill-rule:evenodd;stroke:none;stroke-width:1pt;stroke-linecap:butt;stroke-linejoin:miter;stroke-opacity:1" transform="translate(-98.2 -376.801)"/><path d="M186.313 571.251h9.082l2.805-8.637 2.806 8.637h9.082l-7.347 5.338 2.806 8.637-7.347-5.337-7.346 5.337 2.805-8.637z" style="fill:#fff;fill-opacity:1;fill-rule:evenodd;stroke:none;stroke-width:1pt;stroke-linecap:butt;stroke-linejoin:miter;stroke-opacity:1" transform="translate(-98.2 -473.426)"/><path d="M186.313 571.251h9.082l2.805-8.637 2.806 8.637h9.082l-7.347 5.338 2.806 8.637-7.347-5.337-7.346 5.337 2.805-8.637z" style="fill:#fff;fill-opacity:1;fill-rule:evenodd;stroke:none;stroke-width:1pt;stroke-linecap:butt;stroke-linejoin:miter;stroke-opacity:1" transform="translate(-98.2 -441.218)"/><path d="M186.313 571.251h9.082l2.805-8.637 2.806 8.637h9.082l-7.347 5.338 2.806 8.637-7.347-5.337-7.346 5.337 2.805-8.637z" style="fill:#fff;fill-opacity:1;fill-rule:evenodd;stroke:none;stroke-width:1pt;stroke-linecap:butt;stroke-linejoin:miter;stroke-opacity:1" transform="translate(-98.2 -409.01)"/></svg>
